X:1
T:Songs Without Words (No. 6)
T:Songs Without Words (No. 6)
T:Gondola Song
T:Felix Mendelssohn, Op. 19
C:Felix Mendelssohn, Op. 19
%%score { ( 1 4 ) | ( 2 3 ) }
L:1/8
Q:1/4=66
M:6/8
K:Bb
V:1 treble nm="Piano" snm="Pno."
V:4 treble 
V:2 bass 
V:3 bass 
V:1
"^Andante sostenuto" z6[Q:1/4=74] |[Q:1/4=80] z6 |!pp!!<(! D3!<)! =F3- |!>(! F3 E3!>)! | %4
!p! D3- D2 z |[Q:1/4=74] z6[Q:1/4=66] |[Q:1/4=80] z2 z z2 [Bd] | [Ac]2 [GB] [^FA]2 [Ac] | %8
 [DB]2 [CA] [B,G]2 D | [CE]2 [CE]!<(! [CE]/[DF]/!<)!!mp![EG][CE] | %10
!p![Q:1/4=74] x2 x z2[Q:1/4=80] [Bd] | [Ac]2 [GB] [^FA]2 [Ac] | [DB]2 [CA] [B,G] GA | %13
!<(! B^cd !>![cf][Q:1/4=74]=ed!<)! |!>(! [da]2 f!>)!!mp! d2"_dim." A | %15
 B/4 z/4 z/ [=E^c][Fd]!p! [Af]!>(![G=e][Fd]!>)! |[Q:1/4=66]!pp! [Fd]3- [Fd] z[Q:1/4=80]!p! d | %17
 !>!f2 !>!d !>!c2 !>!=B | c2 !>!G !>!_A2 !>!=B | c2 !>!G !>!_A2 !>!=B | %20
[Q:1/4=74]!>(! !>!c3- c z!>)!!pp![Q:1/4=80] !>!c | !>!e2 !>!A !>!e2 !>!A | %22
 !>!e3- e2[Q:1/4=74] !>!d | !>!c2 !>!B !>!A!>!B!>!G | %24
!<(! !tenuto![D^FAd] .d!<)!!p!.d!>(! .d.d!>)!!pp!!tenuto!.d |!p![Q:1/4=74] .d.B.e .d2 .g | %26
!pp! .d.B.e .d2 .g |!p! !>!d!>!c!>!B !>!A2 !>!A | !>!d2 !>!A[Q:1/4=68] !>!c2!pp! !>!B | %29
!p![Q:1/4=74] !>!d!>!B!>!e !>!d2 !>!g |!pp![Q:1/4=68] !>!d!<(!!>!B!>!e !>!d2!<)! !fermata!g- | %31
!mp! g"_dim."!>!g!>!e !>!d!>!e!>!c | !>!B!>!c!>!A GA!p![CD^F] | %33
[Q:1/4=74] [B,DG] z z[Q:1/4=80] z2!mf! [Bd] | [Ac]2 [GB] [^FA]2 [Ec] | %35
 [DB]2 [dd'] [dd']2"_dim." [DB] | [CA]2 [B,G] [A,^F]2 [FA] |!pp! [DG]2 [dd'] [dd']2 [DB] | %38
[Q:1/4=74] G2 [dd'] [dd']2 z | z2 z =F3- | F3 E3 | D3- D2 z |[Q:1/4=68] x6 | %43
[Q:1/4=60] x3!pp! !>!D3- |[Q:1/4=48] D z z[Q:1/4=36] !>!D3- | D z z !fermata!z2 z |] %46
V:2
!p!!ped! z!<(! [G,B,]D,!ped-up!!ped! z [G,B,]D,!ped-up! | %1
!ped! z [G,B,]D,!ped-up!!ped! z [G,A,C]E,!<)!!ped-up! | %2
!pp!!ped! z [G,B,]D,!ped-up!!ped! z [A,C]F,!ped-up! | %3
!ped! z [B,D]F,!ped-up!!ped! z [G,C]E,!ped-up! |!ped! z [G,B,]D,!ped-up!!ped! z [G,B,]D,!ped-up! | %5
!ped! z [A,C]D,!ped-up!!ped! z [^F,A,]D,!ped-up! | %6
!ped! .G,,[G,B,]D,!ped-up!!ped! .G,,[G,B,]D,!ped-up! | %7
!ped! .G,,[A,C]D,!ped-up!!ped! .G,,[A,C]D,!ped-up! | %8
!ped! .G,,[G,B,]D,!ped-up!!ped! .G,,G,D,!ped-up! |!ped! .G,,G,D,!ped-up! .G,,!p![G,C]D, | %10
!pp!!ped! .G,,[G,B,]D,!ped-up!!ped! .G,,[G,B,]D,!ped-up! | %11
!ped! .G,,[A,C]D,!ped-up!!ped! .G,,[A,C]D,!ped-up! | %12
!ped! .G,,[G,B,]D,!ped-up!!ped! .G,,G,D,!ped-up! | %13
!ped!!<(! .G,,[B,D]G,!ped-up!!ped! .G,,[B,^C]G,!<)!!ped-up! | %14
!p!!ped! .F,,!>(![A,D]F,!ped-up!!ped! .F,,[A,D]!>)!!pp!F,!ped-up! | %15
!ped! .G,,[B,D]G,!ped-up!!ped! .A,,^CA,!ped-up! |!ped! .D,[A,D]F,!ped-up!!ped! .D,[A,D]F,!ped-up! | %17
!ped! .G,,[G,=B,]D,!ped-up!!ped! .G,,[G,B,]D,!ped-up! | %18
!ped! .C,,G,E,!ped-up!!ped! .C,[F,_A,]D,!ped-up! | %19
!ped! .C,,G,E,!ped-up!!ped! .C,[F,_A,]D,!ped-up! | %20
!ped!!>(! .C,,[E,G,]C,!ped-up!!ped! .C,,[E,G,]C,!>)!!ped-up! | %21
!pp!!ped! .^F,,[E,A,]C, .F,,[E,A,]C, | .^F,,[E,A,]C, .F,,[E,A,]C,!ped-up! | %23
!ped! .G,,[D,G,]B,,!ped-up!!ped! .E,,[G,B,]E,!ped-up! | D,,2 z z2 z | %25
!ped!!pp! [G,,,G,,] z z!ped-up!!ped! z2 z!ped-up! |!ped! [G,,,G,,] z z!ped-up!!ped! z2 z!ped-up! | %27
!ped! [B,,,B,,] z z!ped-up!!ped! [C,,C,] z z!ped-up! | %28
!ped! [D,,D,] z z!ped-up!!ped! [G,,G,] z2!ped-up! | %29
!pp!!ped! [G,,,G,,] z z!ped-up!!ped! z2 z!ped-up! |!ped! [G,,G,] z z!ped-up!!ped! z2 z!ped-up! | %31
!ped! [C,,C,] z z!ped-up!!ped! z GE!ped-up! |!ped! DEC!ped-up!!ped! D z D,!ped-up! | %33
!ped! G,,[G,B,]D, G,,[G,B,]!p!D,!ped-up! | G,,[A,C]D, G,,[A,C]D, | %35
!ped! G,,[G,B,]D, G,,[G,B,]"_dim."D,!ped-up! | G,,G,D, G,,[CD]D, | %37
!pp!!ped! G,,[G,B,]D, G,,[G,B,]D, |!pp! G,,[G,B,]D, G,,[G,B,]D, | %39
 G,,[G,B,]D,!ped-up!!ped! z [A,C]F,!ped-up! |!ped! z [B,D]F,!ped-up!!ped! z [G,C]E,!ped-up! | %41
!ped! z [G,B,]D,!ped-up!!ped! z [G,B,]D,!ped-up! | %42
!ped! z [A,C]D,!ped-up!!ped! z [^F,A,]D,!ped-up! |!ped! z [G,B,]D, z2 z | z [G,B,]D, z2 z!ped-up! | %45
!ped! !>!!fermata!G,,,6!ped-up! |] %46
V:3
 G,,2 z G,,2 z | G,,2 z G,,2 z | [G,,,G,,]2 z [F,,,F,,]2 z | [B,,,B,,]2 z [C,,C,]2 z | %4
 D,,2 z D,,2 z | D,,2 z D,,2 z | x6 | x6 | x6 | x6 | x6 | x6 | x6 | x6 | x6 | x6 | x6 | x6 | x6 | %19
 x6 | x6 | x6 | x6 | x6 | x6 | x6 | x6 | x6 | x6 | x6 | x6 | x6 | x6 | x6 | x6 | x6 | x6 | x6 | %38
 x6 | x3 !>![F,,,F,,]2 z | !>![B,,,B,,]2 z !>![C,,C,]2 z | !>!D,,2 z !>!D,,2 z | %42
 !>!D,,2 z !>!D,,2 z | !>!G,,,2 z z2 z | !>!G,,,2 z z2 z | x6 |] %46
V:4
 x6 | x6 | x6 | x6 | x6 | x6 | x6 | x6 | x6 | x6 | D6- | D6 | x6 | x6 | x6 | x6 | x6 | z FG z FG | %18
 c[CE]G _A!p![DF]=B | c[CE]G _A!p![DF]=B | cEG z EG | eE^F eEF | eE[^FA] z EA | z DG z ^CG | x6 | %25
 z .[DG].[Fc] z .[GB].[Bd] | z .[DG].[Fc] z .[GB].[Bd] | z [DG][DG] z [EG][EG] | %28
 z!>(! [D^F][DF] z [DA]!>)![DG] | z [DG][^Fc] z [GB][Bd] | z [DG][^Fc] z [G=B][Bdf] | %31
 [ce] z z x x2 | z GE x x2 | x6 | x6 | x6 | x6 | x6 | x6 | x6 | x6 | x6 | x6 | x6 | x6 | x6 |] %46

